build/img/icon_insta.svg

<svg width="20" height="20" viewBox="0 0 20 20" fill="none" xmlns="http://www.w3.org/2000/svg">
<path d="M10 6.3999C8.01488 6.3999 6.40002 8.01476 6.40002 9.9999C6.40002 11.985 8.01488 13.5999 10 13.5999C11.9852 13.5999 13.6 11.985 13.6 9.9999C13.6 8.01476 11.9852 6.3999 10 6.3999Z" fill="black"/>
<path fill-rule="evenodd" clip-rule="evenodd" d="M0.400024 15.6106V4.3892C0.400024 2.18596 2.18608 0.399902 4.38932 0.399902H15.6107C17.814 0.399902 19.6 2.18596 19.6 4.3892V15.6106C19.6 17.8138 17.814 19.5999 15.6107 19.5999H4.38932C2.18608 19.5999 0.400024 17.8138 0.400024 15.6106ZM4.55995 7.96611C2.926 12.7018 7.29815 17.0739 12.0338 15.44C13.63 14.8894 14.8896 13.6299 15.4401 12.0338C17.074 7.29803 12.7019 2.92588 7.96612 4.55982C6.37002 5.11037 5.11049 6.37002 4.55995 7.96611ZM16 4.59993C16.6628 4.59993 17.2 4.06268 17.2 3.39993C17.2 2.73719 16.6628 2.19993 16 2.19993C15.3373 2.19993 14.8 2.73719 14.8 3.39993C14.8 4.06268 15.3373 4.59993 16 4.59993Z" fill="black"/>
</svg>

<svg width="20" height="20" fill="none" xmlns="http://www.w3.org/2000/svg"><path d="M10 6.4A3.604 3.604 0 006.4 10c0 1.985 1.615 3.6 3.6 3.6s3.6-1.615 3.6-3.6-1.615-3.6-3.6-3.6z" fill="#000"/><path fill-rule="evenodd" clip-rule="evenodd" d="M.4 15.61V4.39A3.99 3.99 0 014.39.4h11.22a3.99 3.99 0 013.99 3.99v11.22a3.99 3.99 0 01-3.99 3.99H4.39A3.99 3.99 0 01.4 15.61zm4.16-7.644a5.823 5.823 0 007.474 7.474 5.508 5.508 0 003.406-3.406A5.823 5.823 0 007.966 4.56 5.508 5.508 0 004.56 7.966zM16 4.6a1.2 1.2 0 100-2.4 1.2 1.2 0 000 2.4z" fill="#000"/></svg>
